!!!COM: Mozart
!!!OTL: Zwolf Variationen in Es, uber die Romanze 'Je suis Lindor' aus der Komodie 'Le Barbier de Seville'
!!!Variation: Variation 3 c
**function	**harm	**kern	**kern
*	*	*clefG2	*clefG2
*	*	*k[b-e-a-]	*k[b-e-a-]
*M2/4	*M2/4	*M2/4	*M2/4
*E-:	*E-:	*E-:	*E-:
=75	=75	=75	=75
*	*	*^	*
2D	2V7	8B-L	2B-	16r
.	.	.	.	(q32gg
.	.	.	.	q32ff
.	.	.	.	q32ee
.	.	.	.	(16ffLL)
.	.	8fJ	.	16aa-)
.	.	.	.	(q32ee-
.	.	.	.	q32dd
.	.	.	.	q32cc
.	.	.	.	(16ddJJ)
.	.	8dL	.	16ffLK)
.	.	.	.	(8b-
.	.	8B-J	.	.
.	.	.	.	16a-Jk
*	*	*clefF4	*clefF4	*
=76	=76	=76	=76	=76
2D	2I	8E-L	2E-	32gLLL
.	.	.	.	32b-
.	.	.	.	32cc
.	.	.	.	32ddJJ
.	.	8B-J	.	32ee-LL
.	.	.	.	32ff
.	.	.	.	32gg
.	.	.	.	32aa-JJJ
.	.	8GL	.	32bb-LLL
.	.	.	.	32ccc
.	.	.	.	32ddd
.	.	.	.	32eee-J
.	.	8E-J	.	16bb-JJ)
.	.	.	.	16r
=77	=77	=77	=77	=77
2D	2V7	8BB-L	2BB-	16r
.	.	.	.	(16ffLL
.	.	8FJ	.	16aa-)
.	.	.	.	(16ddJJ
.	.	8DL	.	16ffLK)
.	.	.	.	(8b-
.	.	8BB-J	.	.
.	.	.	.	16a-Jk
=78	=78	=78	=78	=78
2D	2I	8EE-L	2EE-	32gLLL
.	.	.	.	32b-
.	.	.	.	32a-
.	.	.	.	32gJJ
.	.	8BB-J	.	32a-LL
.	.	.	.	32b-
.	.	.	.	32cc
.	.	.	.	32ddJJJ
.	.	8GGL	.	32ee-LLL
.	.	.	.	32ff
.	.	.	.	32gg
.	.	.	.	32aa-J
.	.	8EE-J	.	16bb-
.	.	.	.	16ee-JJ)
*	*	*clefG2	*clefG2	*
=79	=79	=79	=79	=79
2D	2V7	4f 4a-	8.B-L	(32ddLLL
.	.	.	.	32ee-
.	.	.	.	32ff
.	.	.	.	32ggJ
.	.	.	.	16aa-)
.	.	.	16c-Jk	16ee-JJ
.	.	4f 4a-	8.B-L	(32ddLLL
.	.	.	.	32ee-
.	.	.	.	32ff
.	.	.	.	32ggJ
.	.	.	.	16aa-)
.	.	.	16c-Jk	16ee-JJ
=80	=80	=80	=80	=80
2D	2V7	4f 4a-	8.B-L	(32ddLLL
.	.	.	.	32ee-
.	.	.	.	32ff
.	.	.	.	32ggJ
.	.	.	.	16aa-)
.	.	.	16c-Jk	16ee-JJ
.	.	8.fL 8.a-	8.B-L	(32ddLLL
.	.	.	.	32ee-
.	.	.	.	32ff
.	.	.	.	32ggJ
.	.	.	.	16aa-)
.	.	16B-Jk 16f	16A-Jk	16ddJJ
=81	=81	=81	=81	=81
4T	4Ib	8B- 8e-	8G	16r
.	.	.	.	(q32ff
.	.	.	.	q32ee-
.	.	.	.	q32dd
.	.	.	.	(16ee-LL)
.	.	8r	8r	16gg)
.	.	.	.	16b-'JJ
4P	4IV	8c 8e-	8A-	16r
.	.	.	.	(q32dd
.	.	.	.	q32cc
.	.	.	.	q32b
.	.	.	.	(16ccLL)
.	.	8r	8r	16ee-)
.	.	.	.	16a-'JJ
*	*	*clefF4	*clefF4	*
=82	=82	=82	=82	=82
4D	4Cc	8r	2BB-	16r
.	.	.	.	(q32a-
.	.	.	.	q32g
.	.	.	.	q32f#
.	.	.	.	(16gLL)
.	.	8G 8B-	.	16b-)
.	.	.	.	16e-'JJ
4D	4V7	8A-L 8B-	.	16r
.	.	.	.	(q32g
.	.	.	.	q32f
.	.	.	.	q32e
.	.	.	.	(16fLL)
.	.	8FJ 8B-	.	16a-)
.	.	.	.	16d'JJ
=83	=83	=83	=83	=83
2T	2I	8G 8B-	8E-	32r
.	.	.	.	(32e-LLL
.	.	.	.	32f
.	.	.	.	32gJJ
*	*	*v	*v	*
.	.	8r	32a-LL
.	.	.	32b-
.	.	.	32cc
.	.	.	32ddJJJ
.	.	4r	32ee-LLL
.	.	.	32ff
.	.	.	32gg
.	.	.	32aa-JJ
.	.	.	32bb-LL
.	.	.	32gg
.	.	.	32ff
.	.	.	32ee-JJJ
*-	*-	*-	*-
